SharedPackages/Infrastructure/DesignResourcesKitIcons/Sources/DesignResourcesKitIcons/DesignSystemImages.xcassets/Color/24px/Sync-Color-24.imageset/Sync-Color-24.svg

<svg width="24" height="24" viewBox="0 0 24 24" fill="none" xmlns="http://www.w3.org/2000/svg">
<path d="M11.6876 2.625C15.7839 2.62502 19.2864 5.08545 20.7031 8.5625H16.4459C15.0256 6.84792 12.8433 5.75002 10.3959 5.75C6.87518 5.75 3.90277 8.02191 2.95874 11.1334L2.08105 10.7823C2.69787 6.17995 6.76377 2.625 11.6876 2.625Z" fill="url(#paint0_radial_13193_123489)"/>
<path d="M21.9187 13.2172C21.302 17.8197 17.2363 21.3749 12.3124 21.3749C8.21605 21.3749 4.71362 18.9143 3.29688 15.4373H7.55383C8.97414 17.1519 11.1566 18.2499 13.604 18.2499C17.1247 18.2499 20.097 15.9778 21.041 12.8662L21.9187 13.2172Z" fill="url(#paint1_radial_13193_123489)"/>
<path d="M10.2914 2.14701C12.3908 1.78298 14.5527 2.09904 16.4612 3.05045L16.5519 3.09623C18.3212 4.00076 19.7786 5.41077 20.7412 7.14347C20.7466 7.09639 20.7498 7.04856 20.7498 7.00003V3.25003C20.7498 2.90486 21.0296 2.62505 21.3748 2.62503C21.7199 2.62503 21.9998 2.90486 21.9998 3.25003V7.00003C21.9997 8.38072 20.8805 9.50003 19.4998 9.50003H16.3748C16.0296 9.50002 15.7498 9.22018 15.7498 8.87503C15.7498 8.52987 16.0296 8.25005 16.3748 8.25003H19.4998C19.636 8.25003 19.767 8.22782 19.8898 8.18753C19.8651 8.15574 19.8432 8.12111 19.8245 8.08378L20.5047 7.74332V7.7432L20.3833 7.80399L19.8245 8.08378C19.0026 6.44161 17.6855 5.10097 16.0617 4.24991L15.9036 4.1691C14.2601 3.34981 12.4019 3.06903 10.5924 3.36393L10.4175 3.39432C8.55317 3.73711 6.8505 4.67604 5.5658 6.06986C4.28113 7.46368 3.48381 9.23707 3.29383 11.1231C3.2592 11.4665 2.95277 11.7168 2.60938 11.6823C2.26599 11.6477 2.01553 11.3412 2.05006 10.9978C2.26718 8.84238 3.17852 6.81564 4.64674 5.22269C6.11496 3.62976 8.06077 2.55659 10.1914 2.16483L10.2914 2.14701Z" fill="#F05F2B"/>
<path d="M20.71 12.845C20.7597 12.5181 21.0577 12.2842 21.3904 12.3176C21.7338 12.3522 21.9843 12.6587 21.9497 13.0021L21.939 13.103C21.7039 15.2208 20.7983 17.2092 19.353 18.7772C17.8848 20.3702 15.9389 21.4434 13.8082 21.8351L13.7084 21.8529C11.6089 22.2169 9.44699 21.9009 7.53845 20.9495L7.44788 20.9037C5.67851 19.9991 4.22105 18.5889 3.25842 16.8561C3.25541 16.8824 3.25294 16.9088 3.25159 16.9356L3.25 16.9999V20.7499C3.25 21.0951 2.97018 21.3749 2.625 21.3749C2.29059 21.3749 2.01757 21.1123 2.00085 20.782L2 20.7499V16.9999L2.00085 16.9353C2.03511 15.5845 3.14088 14.4999 4.5 14.4999H7.625C7.97017 14.4999 8.24999 14.7797 8.25 15.1249C8.25 15.4701 7.97018 15.7499 7.625 15.7499H4.5C4.36374 15.7499 4.23265 15.772 4.10986 15.8123C4.13456 15.8441 4.15657 15.8788 4.17529 15.9162L3.49524 16.2564L3.49512 16.2565L3.61646 16.1959L4.17529 15.9162C4.99721 17.5583 6.31424 18.899 7.93811 19.75L8.09619 19.8308C9.73966 20.6501 11.5978 20.9309 13.4073 20.636L13.5823 20.6056C15.4466 20.2628 17.1493 19.3239 18.434 17.9301C19.7187 16.5362 20.5159 14.7629 20.7059 12.8768L20.71 12.845Z" fill="#1074CC"/>
<defs>
<radialGradient id="paint0_radial_13193_123489" cx="0" cy="0" r="1" gradientUnits="userSpaceOnUse" gradientTransform="translate(18.2502 6.98617) rotate(-180) scale(15.625 32.3326)">
<stop stop-color="#F05F2B" stop-opacity="0.3"/>
<stop offset="1" stop-color="#F05F2B" stop-opacity="0.1"/>
</radialGradient>
<radialGradient id="paint1_radial_13193_123489" cx="0" cy="0" r="1" gradientUnits="userSpaceOnUse" gradientTransform="translate(5.74991 16.3748) scale(13.1248 27.1599)">
<stop stop-color="#4397E0" stop-opacity="0.3"/>
<stop offset="1" stop-color="#4397E0" stop-opacity="0.1"/>
</radialGradient>
</defs>
</svg>

<svg fill="none" viewBox="0 0 24 24" xmlns="http://www.w3.org/2000/svg">
  <path fill="url(#Sync-Color-24-1_svg__a)" d="M11.688 2.625c4.096 0 7.598 2.46 9.015 5.938h-4.257a7.833 7.833 0 0 0-6.05-2.813c-3.52 0-6.493 2.272-7.437 5.383l-.878-.35c.617-4.603 4.683-8.158 9.607-8.158Z"/>
  <path fill="url(#Sync-Color-24-1_svg__b)" d="M21.919 13.217c-.617 4.603-4.683 8.158-9.607 8.158-4.096 0-7.598-2.46-9.015-5.938h4.257a7.834 7.834 0 0 0 6.05 2.813c3.52 0 6.493-2.272 7.437-5.384l.878.351Z"/>
  <path fill="#DE5833" d="M10.291 2.147a10 10 0 0 1 6.17.903l.09.046a10 10 0 0 1 4.19 4.047A1.12 1.12 0 0 0 20.75 7V3.25a.625.625 0 0 1 1.25 0V7a2.5 2.5 0 0 1-2.5 2.5h-3.125a.625.625 0 0 1 0-1.25H19.5c.136 0 .267-.022.39-.062a.625.625 0 0 1-.066-.104l.68-.34-.12.06-.56.28a8.75 8.75 0 0 0-3.762-3.834l-.158-.08a8.75 8.75 0 0 0-5.312-.806l-.175.03a8.75 8.75 0 0 0-7.123 7.73.625.625 0 0 1-1.244-.126 10 10 0 0 1 8.141-8.833l.1-.018Z"/>
  <path fill="#3969EF" d="M20.71 12.845a.625.625 0 0 1 1.24.157l-.011.101a10 10 0 0 1-8.13 8.732l-.1.018a10 10 0 0 1-6.17-.904l-.091-.045a10 10 0 0 1-4.19-4.048 1.251 1.251 0 0 0-.006.08L3.25 17v3.75a.625.625 0 0 1-1.25.032v-3.847A2.5 2.5 0 0 1 4.5 14.5h3.125a.625.625 0 1 1 0 1.25H4.5c-.136 0-.267.022-.39.062a.626.626 0 0 1 .065.104l-.68.34.121-.06.56-.28a8.75 8.75 0 0 0 3.762 3.834l.158.08a8.75 8.75 0 0 0 5.311.806l.175-.03a8.75 8.75 0 0 0 7.124-7.73l.004-.031Z"/>
  <defs>
    <radialGradient id="Sync-Color-24-1_svg__a" cx="0" cy="0" r="1" gradientTransform="matrix(-15.625 0 0 -32.3326 18.25 6.986)" gradientUnits="userSpaceOnUse">
      <stop stop-color="#DE5833" stop-opacity=".3"/>
      <stop offset="1" stop-color="#DE5833" stop-opacity=".1"/>
    </radialGradient>
    <radialGradient id="Sync-Color-24-1_svg__b" cx="0" cy="0" r="1" gradientTransform="matrix(13.1248 0 0 27.1599 5.75 16.375)" gradientUnits="userSpaceOnUse">
      <stop stop-color="#3969EF" stop-opacity=".3"/>
      <stop offset="1" stop-color="#3969EF" stop-opacity=".1"/>
    </radialGradient>
  </defs>
</svg>
